Numix/16/status/indicator-keyboard-Cm-3.svg

<?xml version="1.0" encoding="UTF-8" standalone="no"?>
<svg
   xmlns:dc="http://purl.org/dc/elements/1.1/"
   xmlns:cc="http://creativecommons.org/ns#"
   xmlns:rdf="http://www.w3.org/1999/02/22-rdf-syntax-ns#"
   xmlns:svg="http://www.w3.org/2000/svg"
   xmlns="http://www.w3.org/2000/svg"
   xmlns:sodipodi="http://sodipodi.sourceforge.net/DTD/sodipodi-0.dtd"
   xmlns:inkscape="http://www.inkscape.org/namespaces/inkscape"
   viewBox="0 0 16 16"
   id="svg2"
   version="1.1"
   inkscape:version="0.91 r13725"
   sodipodi:docname="indicator-keyboard-Cm-3.svg">
  <metadata
     id="metadata14">
    <rdf:RDF>
      <cc:Work
         rdf:about="">
        <dc:format>image/svg+xml</dc:format>
        <dc:type
           rdf:resource="http://purl.org/dc/dcmitype/StillImage" />
      </cc:Work>
    </rdf:RDF>
  </metadata>
  <defs
     id="defs12" />
  <sodipodi:namedview
     pagecolor="#ffffff"
     bordercolor="#666666"
     borderopacity="1"
     objecttolerance="10"
     gridtolerance="10"
     guidetolerance="10"
     inkscape:pageopacity="0"
     inkscape:pageshadow="2"
     inkscape:window-width="640"
     inkscape:window-height="480"
     id="namedview10"
     showgrid="false"
     inkscape:zoom="14.75"
     inkscape:cx="8"
     inkscape:cy="8"
     inkscape:window-x="65"
     inkscape:window-y="24"
     inkscape:window-maximized="0"
     inkscape:current-layer="svg2" />
  <path
     style="fill:#ececec;fill-opacity:1"
     d="M 1.5996094 0 C 0.71320937 2.9605947e-16 0 0.71320937 0 1.5996094 L 0 14.400391 C 2.9605947e-16 15.286791 0.71320937 16 1.5996094 16 L 14.400391 16 C 15.286791 16 16 15.286791 16 14.400391 L 16 1.5996094 C 16 0.71320937 15.286791 0 14.400391 0 L 1.5996094 0 z M 3.1230469 4.7246094 C 3.3570469 4.7246094 3.5697187 4.7395312 3.7617188 4.7695312 C 3.9537188 4.7995313 4.121625 4.8387187 4.265625 4.8867188 C 4.409625 4.9287188 4.5327656 4.9734844 4.6347656 5.0214844 C 4.7367656 5.0634844 4.8151406 5.1026719 4.8691406 5.1386719 L 4.6699219 5.6699219 C 4.5199219 5.5799219 4.32775 5.4922031 4.09375 5.4082031 C 3.86575 5.3182031 3.5802812 5.2734375 3.2382812 5.2734375 C 2.8482813 5.2734375 2.5068906 5.3387031 2.2128906 5.4707031 C 1.9248906 5.6027031 1.682375 5.7892969 1.484375 6.0292969 C 1.286375 6.2692969 1.1371563 6.5547656 1.0351562 6.8847656 C 0.93915626 7.2147656 0.890625 7.5804219 0.890625 7.9824219 C 0.890625 8.3964219 0.93915626 8.7714219 1.0351562 9.1074219 C 1.1371562 9.4374219 1.2826094 9.719125 1.4746094 9.953125 C 1.6666094 10.187125 1.9017344 10.366188 2.1777344 10.492188 C 2.4597344 10.618187 2.780625 10.681641 3.140625 10.681641 C 3.536625 10.681641 3.8668594 10.646219 4.1308594 10.574219 C 4.4008594 10.496219 4.6041875 10.417844 4.7421875 10.339844 L 4.9140625 10.861328 C 4.8720625 10.891328 4.7992656 10.928703 4.6972656 10.970703 C 4.5952656 11.006703 4.4665469 11.045891 4.3105469 11.087891 C 4.1545469 11.129891 3.9735313 11.161547 3.7695312 11.185547 C 3.5655312 11.215547 3.3379375 11.230469 3.0859375 11.230469 C 2.6839375 11.230469 2.3089375 11.159625 1.9609375 11.015625 C 1.6189375 10.871625 1.3185469 10.660766 1.0605469 10.384766 C 0.80854689 10.108765 0.60898437 9.7691875 0.45898438 9.3671875 C 0.31498438 8.9591875 0.2421875 8.4946563 0.2421875 7.9726562 C 0.2421875 7.4506563 0.3205625 6.9898906 0.4765625 6.5878906 C 0.6385625 6.1798906 0.85123439 5.8365469 1.1152344 5.5605469 C 1.3792344 5.2845469 1.6852031 5.0774531 2.0332031 4.9394531 C 2.3812031 4.7954531 2.7450469 4.7246094 3.1230469 4.7246094 z M 7.7070312 6.3535156 C 8.2950313 6.3535156 8.720375 6.5232344 8.984375 6.8652344 C 9.014375 6.8412344 9.07225 6.8020469 9.15625 6.7480469 C 9.24625 6.6880469 9.3562812 6.6283594 9.4882812 6.5683594 C 9.6202812 6.5083594 9.7732656 6.4580156 9.9472656 6.4160156 C 10.127266 6.3740156 10.325016 6.3535156 10.541016 6.3535156 C 10.895016 6.3535156 11.180484 6.407625 11.396484 6.515625 C 11.618484 6.617625 11.790156 6.7630781 11.910156 6.9550781 C 12.030156 7.1410781 12.110344 7.3668594 12.152344 7.6308594 C 12.194344 7.8948594 12.214844 8.1821406 12.214844 8.4941406 L 12.214844 11.095703 L 11.630859 11.095703 L 11.630859 8.6835938 C 11.630859 8.3775938 11.615937 8.1145781 11.585938 7.8925781 C 11.561938 7.6645781 11.507828 7.4779844 11.423828 7.3339844 C 11.345828 7.1839844 11.232031 7.0739531 11.082031 7.0019531 C 10.932031 6.9239531 10.736094 6.8847656 10.496094 6.8847656 C 10.316094 6.8847656 10.151953 6.9015 10.001953 6.9375 C 9.8579531 6.9675 9.7310469 7.0066875 9.6230469 7.0546875 C 9.5150469 7.1026875 9.4255156 7.1512188 9.3535156 7.1992188 C 9.2875156 7.2472188 9.2389844 7.2826406 9.2089844 7.3066406 C 9.2629844 7.4626406 9.3021719 7.6398906 9.3261719 7.8378906 C 9.3561719 8.0298906 9.3710937 8.2332187 9.3710938 8.4492188 L 9.3710938 11.095703 L 8.7871094 11.095703 L 8.7871094 8.6835938 C 8.7871094 8.3775938 8.7721875 8.1145781 8.7421875 7.8925781 C 8.7181875 7.6645781 8.6640781 7.4779844 8.5800781 7.3339844 C 8.4960781 7.1839844 8.37475 7.0739531 8.21875 7.0019531 C 8.06875 6.9239531 7.8691875 6.8847656 7.6171875 6.8847656 C 7.3351875 6.8847656 7.0944844 6.8996875 6.8964844 6.9296875 C 6.7044844 6.9596875 6.5813437 6.9857656 6.5273438 7.0097656 L 6.5273438 11.095703 L 5.9433594 11.095703 L 5.9433594 6.6054688 C 6.1173594 6.5574688 6.3411875 6.5033594 6.6171875 6.4433594 C 6.8991875 6.3833594 7.2630313 6.3535156 7.7070312 6.3535156 z M 14.388672 8.7539062 C 14.591472 8.7539062 14.765856 8.7793781 14.910156 8.8300781 C 15.058356 8.8807781 15.179844 8.953275 15.277344 9.046875 C 15.374844 9.136575 15.447341 9.2463 15.494141 9.375 C 15.540941 9.4997999 15.564453 9.6350031 15.564453 9.7832031 C 15.564453 10.021103 15.499794 10.217041 15.371094 10.369141 C 15.246294 10.517341 15.085619 10.625106 14.886719 10.691406 C 14.995919 10.718706 15.099772 10.759859 15.201172 10.818359 C 15.306472 10.872959 15.400522 10.945456 15.482422 11.035156 C 15.564322 11.120956 15.630941 11.226762 15.681641 11.351562 C 15.732341 11.476363 15.757813 11.623316 15.757812 11.791016 C 15.757812 11.962616 15.726462 12.119372 15.664062 12.263672 C 15.605563 12.407972 15.515431 12.535331 15.394531 12.644531 C 15.277531 12.749831 15.128612 12.834084 14.945312 12.896484 C 14.762012 12.954984 14.546481 12.984375 14.300781 12.984375 C 14.172081 12.984375 14.052559 12.974578 13.943359 12.955078 C 13.838059 12.939478 13.745963 12.919884 13.664062 12.896484 C 13.582163 12.873084 13.511625 12.849572 13.453125 12.826172 C 13.398525 12.802772 13.357378 12.783178 13.330078 12.767578 L 13.429688 12.427734 C 13.453088 12.443334 13.492275 12.462928 13.546875 12.486328 C 13.601475 12.509728 13.666134 12.533241 13.740234 12.556641 C 13.818234 12.576141 13.902494 12.593775 13.996094 12.609375 C 14.093594 12.624975 14.1994 12.632813 14.3125 12.632812 C 14.683 12.632812 14.949475 12.556397 15.109375 12.404297 C 15.269275 12.248297 15.347656 12.040597 15.347656 11.779297 C 15.347656 11.607697 15.314347 11.464662 15.248047 11.351562 C 15.185647 11.238462 15.099428 11.148331 14.986328 11.082031 C 14.877128 11.011831 14.747809 10.962847 14.599609 10.935547 C 14.455309 10.904347 14.300519 10.888672 14.136719 10.888672 L 14.078125 10.888672 L 14.078125 10.574219 L 14.212891 10.574219 C 14.318191 10.574219 14.425956 10.564422 14.535156 10.544922 C 14.648256 10.521522 14.750144 10.480375 14.839844 10.421875 C 14.933444 10.363375 15.009859 10.285 15.068359 10.1875 C 15.130759 10.09 15.160156 9.9646001 15.160156 9.8125 C 15.160156 9.6838 15.140556 9.5760281 15.097656 9.4863281 C 15.054756 9.3927281 14.995975 9.3182719 14.921875 9.2636719 C 14.851675 9.2090719 14.767422 9.1698844 14.669922 9.1464844 C 14.576322 9.1191844 14.476394 9.1054687 14.371094 9.1054688 C 14.160494 9.1054688 13.997859 9.1348594 13.880859 9.1933594 C 13.763859 9.2518594 13.66785 9.3067219 13.59375 9.3574219 L 13.429688 9.0585938 C 13.468687 9.0312937 13.517672 8.9999437 13.576172 8.9648438 C 13.638572 8.9297437 13.711069 8.8964344 13.792969 8.8652344 C 13.874869 8.8340344 13.963047 8.8085625 14.060547 8.7890625 C 14.161947 8.7656625 14.271672 8.7539062 14.388672 8.7539062 z "
     id="path4" />
</svg>

<svg xmlns="http://www.w3.org/2000/svg" viewBox="0 0 16 16">
 <path d="m 1.6 0 c -0.886 0 -1.6 0.713 -1.6 1.6 l 0 12.801 c 0 0.886 0.713 1.6 1.6 1.6 l 12.801 0 c 0.886 0 1.6 -0.713 1.6 -1.6 l 0 -12.801 c 0 -0.886 -0.713 -1.6 -1.6 -1.6 l -12.801 0 z m 1.523 4.725 c 0.234 0 0.447 0.015 0.639 0.045 c 0.192 0.03 0.36 0.069 0.504 0.117 c 0.144 0.042 0.267 0.087 0.369 0.135 c 0.102 0.042 0.18 0.081 0.234 0.117 l -0.199 0.531 c -0.15 -0.09 -0.342 -0.178 -0.576 -0.262 c -0.228 -0.09 -0.513 -0.135 -0.855 -0.135 c -0.39 0 -0.731 0.065 -1.025 0.197 c -0.288 0.132 -0.531 0.319 -0.729 0.559 c -0.198 0.24 -0.347 0.525 -0.449 0.855 c -0.096 0.33 -0.145 0.696 -0.145 1.098 c 0 0.414 0.049 0.789 0.145 1.125 c 0.102 0.33 0.247 0.612 0.439 0.846 c 0.192 0.234 0.427 0.413 0.703 0.539 c 0.282 0.126 0.603 0.189 0.963 0.189 c 0.396 0 0.726 -0.035 0.99 -0.107 c 0.27 -0.078 0.473 -0.156 0.611 -0.234 l 0.172 0.521 c -0.042 0.03 -0.115 0.067 -0.217 0.109 c -0.102 0.036 -0.231 0.075 -0.387 0.117 c -0.156 0.042 -0.337 0.074 -0.541 0.098 c -0.204 0.03 -0.432 0.045 -0.684 0.045 c -0.402 0 -0.777 -0.071 -1.125 -0.215 c -0.342 -0.144 -0.642 -0.355 -0.9 -0.631 c -0.252 -0.276 -0.452 -0.616 -0.602 -1.018 c -0.144 -0.408 -0.217 -0.873 -0.217 -1.395 c 0 -0.522 0.078 -0.983 0.234 -1.385 c 0.162 -0.408 0.375 -0.751 0.639 -1.027 c 0.264 -0.276 0.57 -0.483 0.918 -0.621 c 0.348 -0.144 0.712 -0.215 1.09 -0.215 z m 4.584 1.629 c 0.588 0 1.013 0.17 1.277 0.512 c 0.03 -0.024 0.088 -0.063 0.172 -0.117 c 0.09 -0.06 0.2 -0.12 0.332 -0.18 c 0.132 -0.06 0.285 -0.11 0.459 -0.152 c 0.18 -0.042 0.378 -0.063 0.594 -0.063 c 0.354 0 0.639 0.054 0.855 0.162 c 0.222 0.102 0.394 0.247 0.514 0.439 c 0.12 0.186 0.2 0.412 0.242 0.676 c 0.042 0.264 0.063 0.551 0.063 0.863 l 0 2.602 l -0.584 0 l 0 -2.412 c 0 -0.306 -0.015 -0.569 -0.045 -0.791 c -0.024 -0.228 -0.078 -0.415 -0.162 -0.559 c -0.078 -0.15 -0.192 -0.26 -0.342 -0.332 c -0.15 -0.078 -0.346 -0.117 -0.586 -0.117 c -0.18 0 -0.344 0.017 -0.494 0.053 c -0.144 0.03 -0.271 0.069 -0.379 0.117 c -0.108 0.048 -0.198 0.097 -0.27 0.145 c -0.066 0.048 -0.115 0.083 -0.145 0.107 c 0.054 0.156 0.093 0.333 0.117 0.531 c 0.03 0.192 0.045 0.395 0.045 0.611 l 0 2.646 l -0.584 0 l 0 -2.412 c 0 -0.306 -0.015 -0.569 -0.045 -0.791 c -0.024 -0.228 -0.078 -0.415 -0.162 -0.559 c -0.084 -0.15 -0.205 -0.26 -0.361 -0.332 c -0.15 -0.078 -0.35 -0.117 -0.602 -0.117 c -0.282 0 -0.523 0.015 -0.721 0.045 c -0.192 0.03 -0.315 0.056 -0.369 0.08 l 0 4.086 l -0.584 0 l 0 -4.49 c 0.174 -0.048 0.398 -0.102 0.674 -0.162 c 0.282 -0.06 0.646 -0.09 1.09 -0.09 z m 6.682 2.4 c 0.203 0 0.377 0.025 0.521 0.076 c 0.148 0.051 0.27 0.123 0.367 0.217 c 0.098 0.09 0.17 0.199 0.217 0.328 c 0.047 0.125 0.07 0.26 0.07 0.408 c 0 0.238 -0.065 0.434 -0.193 0.586 c -0.125 0.148 -0.285 0.256 -0.484 0.322 c 0.109 0.027 0.213 0.068 0.314 0.127 c 0.105 0.055 0.199 0.127 0.281 0.217 c 0.082 0.086 0.149 0.192 0.199 0.316 c 0.051 0.125 0.076 0.272 0.076 0.439 c 0 0.172 -0.031 0.328 -0.094 0.473 c -0.058 0.144 -0.149 0.272 -0.27 0.381 c -0.117 0.105 -0.266 0.19 -0.449 0.252 c -0.183 0.059 -0.399 0.088 -0.645 0.088 c -0.129 0 -0.248 -0.01 -0.357 -0.029 c -0.105 -0.016 -0.197 -0.035 -0.279 -0.059 c -0.082 -0.023 -0.152 -0.047 -0.211 -0.07 c -0.055 -0.023 -0.096 -0.043 -0.123 -0.059 l 0.1 -0.34 c 0.023 0.016 0.063 0.035 0.117 0.059 c 0.055 0.023 0.119 0.047 0.193 0.07 c 0.078 0.019 0.162 0.037 0.256 0.053 c 0.098 0.016 0.203 0.023 0.316 0.023 c 0.37 0 0.637 -0.076 0.797 -0.229 c 0.16 -0.156 0.238 -0.364 0.238 -0.625 c 0 -0.172 -0.033 -0.315 -0.1 -0.428 c -0.062 -0.113 -0.149 -0.203 -0.262 -0.27 c -0.109 -0.07 -0.239 -0.119 -0.387 -0.146 c -0.144 -0.031 -0.299 -0.047 -0.463 -0.047 l -0.059 0 l 0 -0.314 l 0.135 0 c 0.105 0 0.213 -0.01 0.322 -0.029 c 0.113 -0.023 0.215 -0.065 0.305 -0.123 c 0.094 -0.059 0.17 -0.137 0.229 -0.234 c 0.062 -0.098 0.092 -0.223 0.092 -0.375 c 0 -0.129 -0.02 -0.236 -0.063 -0.326 c -0.043 -0.094 -0.102 -0.168 -0.176 -0.223 c -0.07 -0.055 -0.154 -0.094 -0.252 -0.117 c -0.094 -0.027 -0.194 -0.041 -0.299 -0.041 c -0.211 0 -0.373 0.029 -0.49 0.088 c -0.117 0.059 -0.213 0.113 -0.287 0.164 l -0.164 -0.299 c 0.039 -0.027 0.088 -0.059 0.146 -0.094 c 0.062 -0.035 0.135 -0.068 0.217 -0.1 c 0.082 -0.031 0.17 -0.057 0.268 -0.076 c 0.101 -0.023 0.211 -0.035 0.328 -0.035 z" style="fill:#ececec;fill-opacity:1"/>
</svg>
